src/platform/plugins/shared/custom_integrations/public/assets/language_clients/perl.svg

<svg width="128" height="136" viewBox="0 0 128 136" fill="none" xmlns="http://www.w3.org/2000/svg">
<path d="M122.425 63.8504C122.425 63.8504 120.293 61.537 119.804 58.4915C119.314 55.446 120.835 56.4311 120.835 56.4311C120.835 56.4311 120.038 52.3971 116.988 49.0611C113.939 45.7251 110.646 41.7616 108.991 36.3411C107.335 30.9205 104.657 27.8563 102.821 25.7389C100.985 23.6215 100.032 19.3117 98.9427 17.7978C97.8531 16.2839 97.2279 7.62521 89.8123 4.08703C82.3966 0.548839 69.5162 5.80325 65.8168 8.72892C62.1173 11.6546 59.0544 19.6928 54.5999 23.1612C50.1454 26.6296 46.3668 26.9035 43.0092 33.4598C39.6516 40.0161 39.0707 43.694 39.4563 47.3903C39.4563 47.3903 36.7982 47.8585 36.3957 46.3825C35.9932 44.9065 36.7841 39.8149 37.4475 38.2717C37.4475 38.2717 38.2338 38.869 38.1579 39.5222C38.1579 39.5222 40.1509 34.7964 38.6027 32.0941C38.6027 32.0941 39.3624 32.2122 39.7507 32.5672C39.7507 32.5672 40.4206 28.1833 40.2633 25.3516C40.106 22.52 38.9135 20.3789 36.9694 19.2049C36.9694 19.2049 38.2663 17.31 36.5989 15.4196C36.5989 15.4196 35.8156 13.8686 33.8897 12.0847C31.9639 10.3008 30.5285 9.27077 28.6945 9.42873C28.6945 9.42873 28.9754 8.71605 29.2714 8.27496C29.2714 8.27496 27.724 8.54519 27.2323 9.2856C27.2323 9.2856 26.3487 8.81387 26.1207 7.59264C26.1207 7.59264 24.6467 8.10317 24.5424 9.18261C24.5424 9.18261 21.1814 8.24757 19.9743 11.9041C19.9743 11.9041 20.5213 12.0861 20.7019 12.4526C20.7019 12.4526 20.282 13.5496 18.2021 13.8254C16.1222 14.1011 10.1226 14.2741 8.34488 15.0139C6.56717 15.7536 5.84827 16.4425 5.88998 17.1934C5.88998 17.1934 5.00311 17.6713 4.6858 19.676C4.6858 19.676 3.30259 20.4499 3.37092 21.68C3.43924 22.9101 4.20251 22.5151 4.20251 22.5151C4.20251 22.5151 3.48359 25.0068 6.48785 25.0002C6.48785 25.0002 7.03543 26.2037 9.60747 26.0608C12.1795 25.918 14.0644 26.242 15.2321 27.7916C15.2321 27.7916 14.5558 31.0501 11.3482 34.1768C11.8483 34.2143 12.3507 34.2052 12.849 34.1495C12.849 34.1495 10.0422 36.7732 9.49436 40.3972C9.49436 40.3972 10.4564 39.3262 11.0466 39.3495C11.0466 39.3495 7.92378 49.7707 13.6215 59.5978C13.6215 59.5978 14.0445 58.5568 14.2544 58.441C14.2544 58.441 14.233 61.8794 16.4702 64.4353C16.4702 64.4353 16.5468 62.9287 17.3156 62.3452C17.3156 62.3452 20.8465 67.9981 24.283 70.4353C27.7194 72.8724 32.816 73.8233 34.0869 76.4368C34.0869 76.4368 35.7426 74.3658 35.6712 73.0798C35.6712 73.0798 36.2185 74.2793 36.13 75.5702C36.13 75.5702 38.0577 74.5016 38.667 73.9309C39.2763 73.3603 41.957 71.2804 42.4966 74.3592C43.0362 77.438 40.2697 83.8173 43.5495 91.367C43.5495 91.367 42.6286 92.8203 42.7325 94.6894C42.8363 96.5585 44.3135 97.4059 44.361 98.2606C44.4085 99.1153 43.8569 100.724 43.9478 102.362C44.0388 103.999 45.6822 106.54 44.6535 112.47C43.6248 118.4 43.1411 120.006 42.4058 121.048C41.6704 122.09 38.7065 123.978 39.4398 126.793C39.4398 126.793 32.2904 128.12 32.4969 130.612C32.7035 133.105 36.3931 133.681 40.7384 133.44C45.0837 133.198 46.1749 132.216 46.1914 130.637C46.2078 129.058 45.0898 128.835 46.037 127.857C46.9842 126.879 48.0029 125.745 47.6372 121.831C47.2716 117.917 48.9986 114.172 48.9986 114.172C48.9986 114.172 48.4528 110.837 49.4843 108.709C50.5159 106.58 53.3491 102.34 50.9396 96.2487C50.9396 96.2487 51.5187 96.4328 52.2331 96.4572C52.2331 96.4572 50.8289 93.102 52.8117 88.8414C54.7944 84.5809 55.4693 76.1024 55.4693 76.1024C55.4693 76.1024 60.5574 76.2525 62.7381 75.6987C62.7381 75.6987 58.4541 86.1324 59.3741 93.7531C59.3741 93.7531 58.2281 95.0466 58.3033 96.4005C58.3785 97.7544 59.1924 99.4239 60.4657 100.567C61.7391 101.71 65.8756 103.912 68.2306 106.425C70.5856 108.939 72.2536 111.779 72.9366 112.534C72.9366 112.534 70.9472 114.006 71.633 116.112C71.633 116.112 69.5997 116.866 69.9145 118.639C69.9145 118.639 66.9231 118.877 65.4289 120.322C63.9348 121.767 63.2469 123.592 64.7082 124.08C66.1695 124.568 71.4496 124.278 73.2269 124.18C75.0041 124.081 77.0015 122.608 77.0943 121.681C77.187 120.755 76.2769 118.506 76.2769 118.506C76.2769 118.506 77.3552 118.59 77.7111 117.28C77.7111 117.28 80.12 124.586 83.1753 124.2C83.1753 124.2 83.5989 124.108 83.635 123.461C83.635 123.461 85.0808 123.742 85.7558 122.983C86.4307 122.224 87.582 112.081 81.5151 112.27C81.5151 112.27 81.887 111.247 80.7013 110.6C79.5156 109.953 89.866 95.2844 91.0766 93.9993C91.0766 93.9993 88.81 81.5378 91.6124 75.3008L96.7491 64.7837C96.7491 64.7837 98.1368 78.2275 104.846 88.2268C104.777 89.4637 105.148 90.685 105.894 91.6739C105.722 93.6145 104.99 94.6567 105.125 97.0849C105.26 99.5132 107.398 105.828 106.073 112.913C105.807 114.33 102.603 118.686 104.008 122.041C104.008 122.041 101.247 123.837 101.366 125.982C101.485 128.127 102.787 128.479 103.721 128.427C104.656 128.375 105.096 127.421 105.595 127.394C106.094 127.366 106.884 128.684 109.165 128.557C111.445 128.431 113.335 126.467 113.276 125.396C113.217 124.326 111.264 122.648 111.264 122.648C111.264 122.648 112.415 121.438 112.336 120.016C112.257 118.594 110.201 116.345 110.035 113.35C109.869 110.354 110.169 104.505 111.186 101.908C113.221 96.7154 112.75 92.6993 111.341 91.7079C111.341 91.7079 111.871 88.4255 111.681 84.9987C111.491 81.572 108.346 72.5566 110.042 63.2001C110.042 63.2001 112.464 59.2036 112.702 53.109C112.702 53.109 118.018 62.5488 114.827 69.5164C111.637 76.4841 112.348 76.3845 112.391 78.4493C112.434 80.5141 113.663 83.3182 113.663 83.3182L116.734 79.8305C116.734 79.8305 116.568 77.5563 118.046 75.8236C119.524 74.091 120.423 69.5782 119.636 68.388L120.825 69.1633C120.825 69.1633 121.277 66.9908 120.033 63.9191C120.033 63.9191 121.147 63.2843 122.433 63.8539L122.425 63.8504ZM81.3853 98.3194L76.3849 107.467C76.3849 107.467 71.9688 105.28 70.4683 102.643C68.9677 100.007 67.7265 98.3609 67.1317 97.9653C67.1317 97.9653 68.7461 95.512 69.035 92.9961C69.035 92.9961 69.8052 93.0134 70.3219 94.5271C72.7369 91.1239 74.2302 87.4995 74.4992 83.7589C74.4992 83.7589 75.1737 84.3624 75.7608 84.5461C75.7608 84.5461 75.686 81.9743 76.5137 80.0695C77.3413 78.1646 79.2033 75.6976 79.2928 72.1151L80.5708 72.0441C80.5708 72.0441 79.9441 80.0913 81.3947 86.8773C82.8453 93.6632 82.6203 96.1035 81.3895 98.3232L81.3853 98.3194Z" fill="#004065"/>
</svg>

<svg xmlns="http://www.w3.org/2000/svg" width="128" height="136" fill="none"><path fill="#004065" d="M122.425 63.85s-2.132-2.313-2.621-5.358c-.49-3.046 1.031-2.06 1.031-2.06s-.797-4.035-3.847-7.37c-3.049-3.337-6.342-7.3-7.997-12.72s-4.334-8.486-6.17-10.603-2.789-6.427-3.878-7.941c-1.09-1.514-1.715-10.173-9.13-13.711S69.515 5.803 65.816 8.729c-3.7 2.926-6.763 10.964-11.217 14.432s-8.233 3.742-11.59 10.299c-3.358 6.556-3.94 10.234-3.554 13.93 0 0-2.658.468-3.06-1.008s.388-6.567 1.051-8.11c0 0 .787.597.71 1.25 0 0 1.994-4.726.446-7.428 0 0 .76.118 1.148.473 0 0 .67-4.384.512-7.215-.157-2.832-1.35-4.973-3.294-6.147 0 0 1.297-1.895-.37-3.785 0 0-.783-1.551-2.71-3.335-1.925-1.784-3.36-2.814-5.195-2.656 0 0 .281-.713.577-1.154 0 0-1.547.27-2.039 1.01 0 0-.883-.471-1.111-1.692 0 0-1.474.51-1.579 1.59 0 0-3.36-.935-4.568 2.721 0 0 .547.182.728.549 0 0-.42 1.097-2.5 1.372s-8.08.45-9.857 1.189c-1.778.74-2.497 1.428-2.455 2.18 0 0-.887.477-1.204 2.482 0 0-1.383.774-1.315 2.004s.832.835.832.835-.72 2.492 2.285 2.485c0 0 .547 1.204 3.12 1.06 2.572-.142 4.456.182 5.624 1.732 0 0-.676 3.258-3.884 6.385q.752.055 1.501-.027s-2.807 2.623-3.355 6.247c0 0 .962-1.07 1.553-1.047 0 0-3.123 10.42 2.574 20.248 0 0 .423-1.041.633-1.157 0 0-.021 3.438 2.216 5.994 0 0 .077-1.506.846-2.09 0 0 3.53 5.653 6.967 8.09s8.533 3.388 9.804 6.002c0 0 1.656-2.071 1.584-3.357 0 0 .547 1.2.459 2.49 0 0 1.928-1.068 2.537-1.64.61-.57 3.29-2.65 3.83.43.54 3.078-2.227 9.457 1.053 17.007 0 0-.921 1.453-.817 3.322.103 1.87 1.58 2.717 1.628 3.572.047.854-.504 2.463-.413 4.101.09 1.637 1.734 4.178.706 10.108-1.03 5.93-1.513 7.536-2.248 8.578s-3.7 2.93-2.966 5.745c0 0-7.15 1.327-6.943 3.819.206 2.493 3.896 3.069 8.241 2.828 4.346-.242 5.437-1.224 5.453-2.803s-1.101-1.802-.154-2.78 1.966-2.112 1.6-6.026S49 114.172 49 114.172s-.546-3.335.485-5.463 3.865-6.369 1.456-12.46c0 0 .579.184 1.293.208 0 0-1.404-3.355.579-7.616s2.657-12.739 2.657-12.739 5.088.15 7.27-.403c0 0-4.285 10.433-3.365 18.054 0 0-1.146 1.294-1.07 2.647.075 1.354.888 3.024 2.162 4.167 1.273 1.143 5.41 3.345 7.765 5.858 2.355 2.514 4.023 5.354 4.706 6.109 0 0-1.99 1.472-1.304 3.578 0 0-2.033.754-1.718 2.527 0 0-2.992.238-4.486 1.683s-2.182 3.27-.72 3.758c1.46.488 6.74.198 8.518.1 1.777-.099 3.774-1.572 3.867-2.499.093-.926-.817-3.175-.817-3.175s1.078.084 1.434-1.226c0 0 2.409 7.306 5.464 6.92 0 0 .424-.092.46-.739 0 0 1.446.281 2.12-.478.676-.759 1.827-10.902-4.24-10.713 0 0 .372-1.023-.814-1.67S89.866 95.284 91.077 94c0 0-2.267-12.462.535-18.7l5.137-10.516s1.388 13.444 8.097 23.443a5.24 5.24 0 0 0 1.048 3.447c-.172 1.94-.904 2.983-.769 5.41.135 2.43 2.273 8.744.948 15.829-.266 1.417-3.47 5.773-2.065 9.128 0 0-2.761 1.796-2.642 3.941s1.421 2.497 2.355 2.445c.935-.052 1.375-1.006 1.874-1.033.499-.028 1.289 1.29 3.57 1.163 2.28-.126 4.17-2.09 4.111-3.161-.059-1.07-2.012-2.748-2.012-2.748s1.151-1.21 1.072-2.632-2.135-3.671-2.301-6.666.134-8.845 1.151-11.442c2.035-5.193 1.564-9.209.155-10.2 0 0 .53-3.282.34-6.71-.19-3.426-3.335-12.441-1.639-21.798 0 0 2.422-3.996 2.66-10.091 0 0 5.316 9.44 2.125 16.407s-2.479 6.868-2.436 8.933 1.272 4.87 1.272 4.87l3.071-3.489s-.166-2.274 1.312-4.006 2.377-6.246 1.59-7.436l1.189.775s.452-2.172-.792-5.244c0 0 1.114-.635 2.4-.065zm-41.04 34.47-5 9.147s-4.416-2.187-5.917-4.824-2.742-4.282-3.336-4.678c0 0 1.614-2.453 1.903-4.969 0 0 .77.017 1.287 1.531 2.415-3.403 3.908-7.028 4.177-10.768 0 0 .675.603 1.262.787 0 0-.075-2.572.753-4.477.827-1.904 2.69-4.371 2.779-7.954l1.278-.07s-.627 8.046.824 14.832c1.45 6.786 1.225 9.227-.005 11.446z"/></svg>
